X: 1
T:The Clumsy Lover  "CYMRU"
M:6/8
L:1/8
Q:80
C:
S:Jig
K:HP
|: d|
{g}ce{A}e{g}ec{d}A|
{g}df{e}fadf|
{g}ce{A}e{g}ec{d}A|  !
{g}dcd{g}Bed| |
{g}ce{A}e{g}ec{d}A|
{g}df{e}fadf|  !
{g}ce{A}ed{e}G{d}B|
{g}B{d}A{e}A{GAG}A2:| |:
d|  !
{g}ca{g}a{g}aec|
{g}da{g}a{g}afd|
{g}ca{g}a{g}aec|  !
{g}dcd{g}Bed| |
{g}ca{g}a{g}aec|
{g}da{g}a{g}afd|  !
{g}ce{A}ed{e}G{d}B|
{g}B{d}A{e}A{GAG}A2:| |:
d|  !
{g}ce{A}e{g}ce{A}e|
{g}df{e}f{g}df{e}f|
{g}ce{A}e{g}ce{A}e|  !
{g}dcd{g}Bed| |
{g}ce{A}e{g}ce{A}e|
{g}df{e}f{g}afd|  !
{g}ce{A}ed{e}G{d}B|
{g}B{d}A{e}A{GAG}A2:| |]
d|  !
{g}ca{g}acac|
{g}da{g}adac|
{g}ca{g}acac|  !
{g}dcd{g}Bed| |
{g}ca{g}acac|
{g}da{g}adac|  !
{g}ce{A}ed{e}G{d}B|
{g}B{d}A{e}A{GAG}A2d|
{g}ca{g}acac|  !
{g}da{g}adac|
{g}ca{g}acac|
{g}B3c3|  !
{Gdc}d3e3| |
{g}ca{g}acac|
{g}da{g}adac|  !
{g}ce{A}ed{e}G{d}B|
{g}B{d}A{e}A{GAG}A2|]
